assets/logo.svg

<svg height="257" viewBox="0 0 257 257" width="257" xmlns="http://www.w3.org/2000/svg" xmlns:xlink="http://www.w3.org/1999/xlink"><defs><circle id="a" cx="128.5" cy="128.5" r="125.5"/><mask id="b" fill="#fff"><use fill="none" xlink:href="#a"/></mask></defs><g fill="none" fill-rule="evenodd"><use fill="#208dec" xlink:href="#a"/><g fill="#fff" fill-rule="nonzero" mask="url(#b)"><path d="m131.733531 83.569125c-.030061 2.776902-2.289701 5.0122129-5.066765 5.0122129-2.777065 0-5.036705-2.2353109-5.066766-5.0122129v-45.569125c.030061-2.776902 2.289701-5.0122129 5.066766-5.0122129 2.777064 0 5.036704 2.2353109 5.066765 5.0122129zm-1.768187 31.713969c-.783157.670344-19.552188 16.420156-53.965344 16.420156-34.4125625 0-53.181-15.750406-53.9641563-16.42075-2.1241822-1.821468-2.3700491-5.019865-.5492187-7.144594 1.8167141-2.121112 5.0075885-2.371325 7.1327187-.559312.2974688.249375 17.0578438 13.990531 47.38125 13.990531 30.7040003 0 47.2049063-13.840312 47.3681873-13.979844 2.120281-1.821031 5.32475-1.576406 7.144594.549219 1.821459 2.124303 1.576105 5.322941-.548031 7.144594zm-109.6988752-77.283094c.0300609-2.776902 2.2897008-5.0122129 5.0667656-5.0122129 2.7770647 0 5.0367046 2.2353109 5.0667656 5.0122129v45.569125c-.030061 2.776902-2.2897009 5.0122129-5.0667656 5.0122129-2.7770648 0-5.0367047-2.2353109-5.0667656-5.0122129zm25.334125-10.1335312c.0423765-2.7678915 2.2982529-4.9894946 5.0664687-4.9894946s5.0240922 2.2216031 5.0664688 4.9894946v67.6880937c-.0423766 2.7678914-2.298253 4.9894945-5.0664688 4.9894945s-5.0240922-2.2216031-5.0664687-4.9894945v-67.6875zm25.3329375-2.5638125c-.0001576-1.3437594.533579-2.6325271 1.4837604-3.5827084.9501813-.9501813 2.238949-1.4839179 3.5827083-1.4837604 1.3438622-.000315 2.6327824.533352 3.5830922 1.4835504s1.4841278 2.2390561 1.4839703 3.5829184v73.4664687c-.030061 2.776902-2.2897009 5.012213-5.0667656 5.012213-2.7770648 0-5.0367047-2.235311-5.0667656-5.012213zm25.3335312 2.5638125c.0423766-2.7678915 2.2982529-4.9894946 5.0664685-4.9894946 2.768216 0 5.024092 2.2216031 5.066469 4.9894946v67.6880937c-.042377 2.7678914-2.298253 4.9894945-5.066469 4.9894945-2.7682156 0-5.0240919-2.2216031-5.0664685-4.9894945v-67.6875zm36.7329375-27.8664688h-114c-10.49334375 0-19 8.50665625-19 19v114c0 10.49275 8.50665625 19 19 19h114c10.493344 0 19-8.50725 19-19v-114c0-10.49334375-8.506656-19-19-19z" transform="translate(53 53)"/></g></g></svg>

<?xml version="1.0" encoding="UTF-8"?>
<svg width="257px" height="257px" viewBox="0 0 257 257" version="1.1" xmlns="http://www.w3.org/2000/svg" xmlns:xlink="http://www.w3.org/1999/xlink">
    <!-- Generator: Sketch 50.2 (55047) - http://www.bohemiancoding.com/sketch -->
    <title>intercom/logo</title>
    <desc>Created with Sketch.</desc>
    <defs>
        <circle id="path-1" cx="128.5" cy="128.5" r="125.5"></circle>
    </defs>
    <g id="intercom/logo" stroke="none" stroke-width="1" fill="none" fill-rule="evenodd">
        <mask id="mask-2" fill="white">
            <use xlink:href="#path-1"></use>
        </mask>
        <use id="Mask" fill="#208DEC" xlink:href="#path-1"></use>
        <g id="intercom-2" mask="url(#mask-2)" fill="#FFFFFF" fill-rule="nonzero">
            <g transform="translate(53.000000, 53.000000)" id="Shape">
                <path d="M131.733531,83.569125 C131.70347,86.346027 129.44383,88.5813379 126.666766,88.5813379 C123.889701,88.5813379 121.630061,86.346027 121.6,83.569125 L121.6,38 C121.630061,35.223098 123.889701,32.9877871 126.666766,32.9877871 C129.44383,32.9877871 131.70347,35.223098 131.733531,38 L131.733531,83.569125 Z M129.965344,115.283094 C129.182187,115.953438 110.413156,131.70325 76,131.70325 C41.5874375,131.70325 22.819,115.952844 22.0358437,115.2825 C19.9116615,113.461032 19.6657946,110.262635 21.486625,108.137906 C23.3033391,106.016794 26.4942135,105.766581 28.6193437,107.578594 C28.9168125,107.827969 45.6771875,121.569125 76.0005937,121.569125 C106.704594,121.569125 123.2055,107.728813 123.368781,107.589281 C125.489062,105.76825 128.693531,106.012875 130.513375,108.1385 C132.334834,110.262803 132.08948,113.461441 129.965344,115.283094 Z M20.2664688,38 C20.2965297,35.223098 22.5561696,32.9877871 25.3332344,32.9877871 C28.1102991,32.9877871 30.369939,35.223098 30.4,38 L30.4,83.569125 C30.369939,86.346027 28.1102991,88.5813379 25.3332344,88.5813379 C22.5561696,88.5813379 20.2965297,86.346027 20.2664688,83.569125 L20.2664688,38 Z M45.6005938,27.8664688 C45.6429703,25.0985773 47.8988467,22.8769742 50.6670625,22.8769742 C53.4352783,22.8769742 55.6911547,25.0985773 55.7335313,27.8664688 L55.7335313,95.5545625 C55.6911547,98.3224539 53.4352783,100.544057 50.6670625,100.544057 C47.8988467,100.544057 45.6429703,98.3224539 45.6005938,95.5545625 L45.6005938,27.8670625 L45.6005938,27.8664688 Z M70.9335313,25.3026563 C70.9333737,23.9588969 71.4671103,22.6701292 72.4172917,21.7199479 C73.367473,20.7697666 74.6562407,20.23603 76,20.2361875 C77.3438622,20.2358725 78.6327824,20.7695395 79.5830922,21.7197379 C80.533402,22.6699363 81.06722,23.958794 81.0670625,25.3026563 L81.0670625,98.769125 C81.0370015,101.546027 78.7773616,103.781338 76.0002969,103.781338 C73.2232321,103.781338 70.9635922,101.546027 70.9335313,98.769125 L70.9335313,25.3026563 Z M96.2670625,27.8664688 C96.3094391,25.0985773 98.5653154,22.8769742 101.333531,22.8769742 C104.101747,22.8769742 106.357623,25.0985773 106.4,27.8664688 L106.4,95.5545625 C106.357623,98.3224539 104.101747,100.544057 101.333531,100.544057 C98.5653154,100.544057 96.3094391,98.3224539 96.2670625,95.5545625 L96.2670625,27.8670625 L96.2670625,27.8664688 Z M133,0 L19,0 C8.50665625,0 0,8.50665625 0,19 L0,133 C0,143.49275 8.50665625,152 19,152 L133,152 C143.493344,152 152,143.49275 152,133 L152,19 C152,8.50665625 143.493344,0 133,0 Z"></path>
            </g>
        </g>
    </g>
</svg>
